library/images/icon-2.svg

<svg fill="none" height="100" viewBox="0 0 90 100" width="90" xmlns="http://www.w3.org/2000/svg"><path d="m88.0714 13.9955c-.1795-1.2893-1.1072-2.3499-2.3612-2.6985l-40.192-11.177391c-.573-.1594785-1.1782-.1594785-1.7517 0l-40.19194 11.177391c-1.25404.3486-2.18171 1.4087-2.36124 2.6985-.233114 1.6763-5.55123 41.2826 8.08938 60.9856 13.6245 19.6794 33.7235 24.7226 34.5723 24.9278.2523.061.5094.0911.7674.0911.2579 0 .515-.0305.7673-.0911.8492-.2052 20.9483-5.2484 34.5723-24.9278 13.6407-19.7025 8.3225-59.3089 8.0894-60.9856zm-17.5103 23.1226-27.415 27.415c-.6379.6379-1.4746.9573-2.3107.9573-.8362 0-1.6728-.319-2.3107-.9573l-16.9505-16.9504c-.613-.6127-.9573-1.4441-.9573-2.3107 0-.8667.3447-1.6981.9573-2.3107l3.3656-3.3656c1.2763-1.2758 3.3456-1.2763 4.6214 0l11.2742 11.2741 21.7387-21.7391c.6126-.6131 1.444-.9573 2.3107-.9573.8666 0 1.698.3442 2.3107.9573l3.3656 3.3656c1.2762 1.2763 1.2762 3.3455 0 4.6218z" fill="#3090d7"/></svg>

<svg width="90" height="100" viewBox="0 0 90 100" fill="none" xmlns="http://www.w3.org/2000/svg">
<path d="M88.0714 13.9955C87.8919 12.7062 86.9642 11.6456 85.7102 11.297L45.5182 0.119609C44.9452 -0.0398695 44.34 -0.0398695 43.7665 0.119609L3.57456 11.297C2.32052 11.6456 1.39285 12.7057 1.21332 13.9955C0.980206 15.6718 -4.33791 55.2781 9.3027 74.9811C22.9272 94.6605 43.0262 99.7037 43.875 99.9089C44.1273 99.9699 44.3844 100 44.6424 100C44.9003 100 45.1574 99.9695 45.4097 99.9089C46.2589 99.7037 66.358 94.6605 79.982 74.9811C93.6227 55.2786 88.3045 15.6722 88.0714 13.9955ZM70.5611 37.1181L43.1461 64.5331C42.5082 65.171 41.6715 65.4904 40.8354 65.4904C39.9992 65.4904 39.1626 65.1714 38.5247 64.5331L21.5742 47.5827C20.9612 46.97 20.6169 46.1386 20.6169 45.272C20.6169 44.4053 20.9616 43.5739 21.5742 42.9613L24.9398 39.5957C26.2161 38.3199 28.2854 38.3194 29.5612 39.5957L40.8354 50.8698L62.5741 29.1307C63.1867 28.5176 64.0181 28.1734 64.8848 28.1734C65.7514 28.1734 66.5828 28.5176 67.1955 29.1307L70.5611 32.4963C71.8373 33.7726 71.8373 35.8418 70.5611 37.1181Z" fill="#3090D7"/>
</svg>
